X:1
T:Resurrexi et ad huc
T:Giovanni Girolamo Kapsperger
T:Source : Libro primo di mottetti passeggiati a una voce---Roma---1612. Racolta del Sig.Francesco de Nobile Editor : André Vierendeels (25/10/15).
T:Notes : Original clefs : C1, F4 Editorial accidentals above the staff Note values have been halved in 3-beat measures
T:Resurrexi et ad huc
C:Giovanni Girolamo Kapsperger
%%score 1 2
L:1/8
Q:1/4=80
M:4/4
K:F
V:1 treble nm="Soprano" snm="S"
V:2 bass nm="BC" snm="BC"
V:1
 F8- | F4 G4 | B8 | B8 | B6 c2 | F2 Bc dF>BA | G6 G2 | F8 |[M:3/4] F2 F/D/E/F/ G/E/F/G/ | A3 B c2 | %10
w: Sur-|* re-|xi|et|ad huc|te- * * * * * *|* cum|sum,|Al le- * * * lu- * * *|ia, _ _|
[M:4/4] z d/e/ f2 _e/d/e/c/ d/c/d/B/ | c8 | B8 | c6 d2 | B8 | A4 d2 c2 | B4 c2 B2 | A8 | G8 | %19
w: Al- * * le- * * * * * * *|lu-|ia,|po- su-|i-|sti su- per|me- ma- num|tu-|am,|
[M:3/4] =B/G/A/B/ c/A/B/c/ F/G/A/F/ | G3 A/B/ c2 |[M:4/4] BABG AGAF | G8 | F4 A4 | =B4 c4- | %25
w: Al- * * * le- * * * lu- * * *|ia, _ _ _|Al- * * * le- * * *|lu-|ia, mi-|ra- *|
 c4 =B4 | c8 |"^b" B6 B2 | A4 _e4- | e4 d2 d2 | c8 | B8 |[M:3/4] d2 c2 B2 | A3 =B c2 | c2 c2 =B2 | %35
w: * bi-|lis|fa- cta|est scien-|* ti- a|tu-|a,|Al- le- lu-|Ia, _ _|Al- le- lu-|
 c2 BA G2 | G2 G2 A2 | B3 A/G/ F2 | G2 G2 ^F2 |"^-natural" G3 F/E/ D2 | F2 F2 E2 | F3 G A2 | %42
w: ia, _ _ _|Al- le- lu-|ia, _ _ _|Al- le- lu-|ia, _ _ _|Al- le lu-|ia, _ _|
 c2 B2 G2 | F6 |[M:4/4] B/c/d/_e/ d/c/B/A/ G/A/B/A/ G/F/E/D/ | C2 GA Bc=Bc | %46
w: Al- le- lu-|ia,|Al- * * * * * * * * * * * * * * *||
 EFGA Bc d/c/B/4A/4G/4F/4 | G6 A2 | !fermata!F8 |] %49
w: * * * * * * le _ _ _ _ _|lu- *|ia.|
V:2
 F,8 | _E,8 | B,,8- | B,,8 | B,,4 A,,4 | B,,8 | C,8 | F,,8 |[M:3/4] B,,2 A,,2 G,,2 | F,,2 F,3 E, | %10
[M:4/4] D,4 C,2 B,,2 | F,8 | B,,8 | F,,8 | G,,8 | D,4 B,,4 | _E,4 C,4 | D,8 | G,,8 | %19
[M:3/4] G,2 F,2 D,2 | C,2 B,,2 A,,2 |[M:4/4] G,,4 F,,4 | C,8 | F,,4 F,4 | G,4 E,4 | D,8 | C,8 | %27
 G,,8 | D,4 C,4 | F,8 | F,8 | B,,8 |[M:3/4] B,2 A,2 G,2 | F,3 E,/D,/ C,2 | E,2 F,2 G,2 | %35
 C,2 D,2 _E,2 | C,2 B,,2 A,,2 | G,,2 A,,2 B,,2 | _E,2 C,2 D,2 | G,,2 A,,2 B,,2 | A,,2 B,,2 C,2 | %41
 D,3 E, F,2 | A,,2 B,,2 C,2 |"^b" F,,6 |[M:4/4] B,,8 | C,8- | C,8 | C,8 | !fermata!F,,8 |] %49

